X:3089
T:Herleg ein sommardag
C:anon.
O:Norway?
R:Round
Z:Transcribed by Frank Nordberg - http://www.musicaviva.com
F:http://abc.musicaviva.com/tunes/norway/herleg-ein-sommardag/herleg-ein-sommardag-1.abc
M:3/4
L:1/4
K:G
"^1"ddd|d>cB|cBA|B2 z|
w:Her-leg ein som-mar-dag, hug-heil og fri,
"^2"BBB|B>AG|AGF|G2 z|
w:gan-ga i glad-lyndt lag gren-der for-bi.
"^3"G2G|G2G|DDD|G2 z|]
w:Ve-gen lang vi kor-tar med song.
W:
W:Herleg ein sommardag, hugheil og fri,
W:ganga i gladlyndt lag grender forbi.
W:Vegen lang vi kortar med song.
W:
W:
W:  From Musica Viva - http://www.musicaviva.com
W:  the Internet center for free sheet music downloads.

